X:1
T:Title
%%score { ( 1 4 ) | ( 2 3 ) }
L:1/8
M:4/4
K:Eb
V:1 treble nm="Grand Piano"
V:4 treble 
V:2 bass 
V:3 bass 
V:1
 z4 z2[Q:1/4=112] [CE]2 | [CE]2 [CF]2 [CG]2 [CA]2 | [_DA]4 [DG]2 [DA]2 | B2 G2 F2 E2 | [Ec]6 c2 | %5
 B2 E2 B2 [DA]2 | G3 A B2 E2 | F2 BA G2 [DF]2 | E6[K:bass] E,2 | z[K:treble] G z G z G z G | %10
 z A2 A z A[K:bass] z[K:treble] A | z G z G[K:bass] z G z[K:treble] G | z F2 F F2 A2 | %13
 [DA]2 [Dc]2 [EB]2 [DA]2 | G3 A B2 B2 | c2 c2 d2 [Ad]2 |[M:3/4] [Ge]6 |[M:1/4] E2 | %18
[M:4/4] [CEe]6 A2 | A2 G2 z2 E2 | [G_d]2 [Fd]2 d2 d2 | c6 [A,CE]2 | %22
 [A,_DF]2 .[B,=DB]2 [B,EG]2 .[C=Ec]2 | [CFA]4 .[B,FB]2 _de | [Gf][Gf] z2 [Ge] [Ge]3 | %25
[M:3/4] [CA]6 |] %26
V:2
 z4 z2 [A,,E,]2 | [A,,E,]2 [A,,E,]2 [A,,E,]2 [A,,E,]2 | [B,,E,]4 [B,,E,]2 [B,,F,]2 | %3
 [E,G,_D]2 [E,B,D]2 [E,A,D]2 [E,G,D]2 | [A,,A,]6 [A,E]2 | [G,B,E]2 [G,B,]2 [F,CE]2 [B,,B,]2 | %6
 [B,E]4 z4 | [A,CE]2 [F,=B,E]2 [_B,E]2 [B,,A,]2 | [E,G,]6 z2 | %9
 z[K:treble] E z [_DE] z [DE] z [DE] | z E2 E z [CE] z [CE] | z [C=E] z [CE] z [CE] z [CE] | %12
 z C2 C C2[K:bass] [F,CF]2 | [B,,B,]2 [B,,A,]2 [B,,G,]2 [B,,F,]2 | %14
 z2 z F, [E,G,E]2[K:treble] [G,B,E]2 | [A,E]2 [F,A,F]2 [B,A]2[K:bass] [B,,B,]2 |[M:3/4] [E,B,]6 | %17
[M:1/4] E,2 |[M:4/4] A,,2 C,E, A,2 [CE]2 | [B,_DE]2 [B,DE]2 z2 E,2 | %20
 [E,B,]2 [E,A,]2 [E,G,E]2 [G,B,E]2 | [A,E]6 A,,2 | _D,2 z A E,2 z[K:treble] B | %23
 F,4 z[K:treble] c[K:bass] [B,,B,]2 | [E,_D][E,D] z2 [E,D] [E,D]3 |[M:3/4] [A,,A,]6 |] %26
V:3
 x8 | x8 | x8 | x8 | x8 | x8 | E,3 F, [G,B,E]2 [G,B,]2 | x8 | x8 | x[K:treble] x7 | x8 | x8 | %12
 x6[K:bass] x2 | x8 | [E,E]4 z4[K:treble] | x6[K:bass] x2 |[M:3/4] x6 |[M:1/4] x2 |[M:4/4] x8 | %19
 x8 | x8 | x8 | z2 B,,2 z2 C,2[K:treble] | z4 _D,2[K:treble][K:bass] z2 | x8 |[M:3/4] x6 |] %26
V:4
 x8 | x8 | x8 | x8 | x8 | x8 | x8 | x8 | x6[K:bass] x2 | _D2[K:treble] B,2 G,2 E,2 | %10
 C4 A,2[K:bass] C,2[K:treble] | B,2 G,2[K:bass] =E,2 C,2[K:treble] | A,6 z2 | x8 | x8 | x8 | %16
[M:3/4] x6 |[M:1/4] x2 |[M:4/4] x8 | x8 | x8 | x8 | x8 | z4 z2 F2 | x8 |[M:3/4] x6 |] %26

